X:1
T:James Gibb editions
T:O spazzacamin - Azzaiolo
T:#
%%score [ 1 2 3 4 ]
L:1/8
Q:1/4=90
M:6/8
K:F
V:1 treble nm="Soprano" snm="S"
V:2 treble nm="Alto" snm="A"
V:3 treble-8 nm="Tenor" snm="T"
V:4 bass nm="Bass" snm="B"
V:1
"^O spazzacamin""^Filippo Azzaiolo\n(C16th)" z6 | z2 z z2 A | A2 B A2 G | F2 F F2 E || %4
w: |Chi|vuol bel- le ma-|don' spaz- zà'l ca-|
[M:4/4] F4 z2 F2 | F2 F2 F2 F2 | E4 z2 E2- | E2 E2 F2 E2 | F2 F2 F4 |[M:4/4] A3 A B2 B2 | %10
w: min. Coi|no- stri mu- ce-|gù curt|* e gros d'o-|gni ra- sù|v'in- tra- ren su|
 A2 G2 ^F2 F2 | B3 B A2 G2 | G2 ^F2 G4 | ^F3 F G2 G2 | A2 A2 B4 | B3 B A2 G2 | B2 A2 B4 || %17
w: la col- me- gna,|spaz- za- ren da|pa- la- din.|Gnie vo- len de|vos qua- tri,|gnie da bi- ver,|gnie ma- gnà,|
[M:6/8] z6 | z6 | AAA G2 F | F2 E F3 | z6 |[M:6/8] z6 | AAA G2 F | F2 E F3 || A3 AFG | A6 |] %27
w: ||tuc- chi la can- na|del ca- mì.|||tuc- chi la can- na|del ca- mì.|O spaz- za- ca-|min!|
V:2
 z6 | z2 z z2 F | F2 F F2 E | D2 D C2 C ||[M:4/4] C4 z2 D2 | D2 C2 C2 =B,2 | C4 z2 C2- | %7
w: |Chi|vuol bel- le ma-|don' spaz- zà'l ca-|min. Coi|no- stri mu- ce-|gù curt|
 C2 C2 C2 B,2 | C2 C2 D4 |[M:4/4] F3 F F2 F2 | F2 D2 D2 D2 | F3 F F2 D2 | D2 D2 D4 | D3 D D2 D2 | %14
w: * e gros d'o-|gni ra- sù|v'in- tra- ren su|la col- me- gna,|spaz- za- ren da|pa- la- din.|Gnie vo- len de|
 F2 F2 F4 | F3 F F2 E2 | F2 F2 F4 ||[M:6/8] z6 | z6 | FFF D2 D | C2 C C3 | z6 |[M:6/8] z6 | %23
w: vos qua- tri,|gnie da bi- ver,|gnie ma- gnà,|||tuc- chi la can- na|del ca- mì.|||
 FFF D2 D | C2 C C3 || F3 FDE | F6 |] %27
w: tuc- chi la can- na|del ca- mì.|O spaz- za- ca-|min!|
V:3
 c3 cAB | c3- c2 c | c2 d c2 c | A2 B G2 G ||[M:4/4][K:treble-8] A4 z2 B2 | B2 A2 F2 F2 | %6
w: O spaz- za- ca-|min! * Chi|vuol bel- le ma-|don' spaz- zà'l ca-|min. Coi|no- stri mu- ce-|
 G4 z2 G2- | G2 G2 A2 B2 | B2 A2 B4 |[M:4/4][K:treble-8] c3 c d2 d2 | c2 B2 A2 A2 | d3 d c2 B2 | %12
w: gù curt|* e gros d'o-|gni ra- sù|v'in- tra- ren su|la col- me- gna,|spaz- za- ren da|
 A2 A2 G4 | A3 A B2 B2 | c2 c2 d4 | d3 d c2 B2 | c2 c2 d4 ||[M:6/8][K:treble-8] c2 c B2 B | %18
w: pa- la- din.|Gnie vo- len de|vos qua- tri,|gnie da bi- ver,|gnie ma- gnà,|Sol pen- sen a|
 G2 G A3 | ccc B2 A | G2 G A3 | c2 c B2 A |[M:6/8][K:treble-8] A2 G A3 | ccc B2 A | G2 G A3 || %25
w: ben spaz- zà,|tuc- chi la can- na|del ca- mì.|Sol pen- sen a|ben spaz- zà,|tuc- chi la can- na|del ca- mì.|
 c3 cAB | c6 |] %27
w: O spaz- za- ca-|min!|
V:4
 z6 | z2 z z2 F, | F,2 B,, F,2 C, | D,2 B,, C,2 C, ||[M:4/4] F,4 z2 B,,2 | B,,2 F,2 D,2 D,2 | %6
w: |Chi|vuol bel- le ma-|don' spaz- zà'l ca-|min. Coi|no- stri mu- ce-|
 C,4 z2 C,2- | C,2 C,2 F,2 G,2 | F,2 F,2 B,,4 |[M:4/4] F,3 F, B,,2 B,,2 | F,2 G,2 D,2 D,2 | %11
w: gù curt|* e gros d'o-|gni ra- sù|v'in- tra- ren su|la col- me- gna,|
 B,,3 B,, F,2 G,2 | D,2 D,2 G,,4 | D,3 D, G,2 G,2 | F,2 F,2 B,,4 | B,3 B, F,2 G,2 | F,2 F,2 B,,4 || %17
w: spaz- za- ren da|pa- la- din.|Gnie vo- len de|vos qua- tri,|gnie da bi- ver,|gnie ma- gnà,|
[M:6/8] F,2 F, B,,2 B,, | C,2 C, F,3 | F,F,F, B,,2 B,, | C,2 C, F,,3 | F,2 C, D,2 F, | %22
w: Sol pen- sen a|ben spaz- zà,|tuc- chi la can- na|del ca- mì.|Sol pen- sen a|
[M:6/8] F,2 E, F,3 | F,F,F, B,,2 B,, | C,2 C, F,,3 || F,3 F,F,F, | F,6 |] %27
w: ben spaz- zà,|tuc- chi la can- na|del ca- mì.|O spaz- za- ca-|min!|

